; generated by Slic3r 1.2.9 on 2018-04-19 at 01:10:15

; external perimeters extrusion width = 0.50mm
; perimeters extrusion width = 0.72mm
; infill extrusion width = 0.72mm
; solid infill extrusion width = 0.72mm
; top infill extrusion width = 0.72mm

M107
M104 P200 ; set temperature
G28 ; home all axes
G1 Z5 F5000 ; lift nozzle

M109 P200 ; wait for temperature to be reached
G21 ; set units to millimeters
G90 ; use absolute coordinates
G1 Z0.350 F7800.000
G1 A-2.00000 F2400.00000
G1 X88.345 Y77.135 F7800.000
G1 A0.00000 F2400.00000
G1 X90.097 Y75.656 A0.07096 F1800.000
G1 X92.249 Y74.863 A0.14192
G1 X93.429 Y74.757 A0.17858
G1 X105.679 Y74.757 A0.55761
G1 X107.938 Y75.154 A0.62857
G1 X109.926 Y76.298 A0.69953 F1800.000
G1 X111.405 Y78.050 A0.77049
G1 X112.198 Y80.202 A0.84146
G1 X112.304 Y81.382 A0.87811
G1 X112.304 Y117.406 A1.99273
G1 X111.907 Y119.665 A2.06370
G1 X110.683 Y121.748 A2.13845
G1 X110.441 Y122.027 A2.14988
G1 X108.661 Y123.473 A2.22084
G1 X105.437 Y124.310 A2.32389
G1 X93.429 Y124.310 A2.69543
G1 X91.170 Y123.913 A2.76640
G1 X89.182 Y122.770 A2.83736
G1 X87.703 Y121.017 A2.90832
G1 X86.910 Y118.865 A2.97928
G1 X86.804 Y117.685 A3.01593
G1 X86.804 Y81.382 A4.13919
G1 X87.201 Y79.123 A4.21015
G1 X88.307 Y77.200 A4.27880
G1 A2.27880 F2400.00000
G1 X103.837 Y116.085 F7800.000
G1 A4.27880 F2400.00000
G1 X95.029 Y116.085 A4.55134 F1800.000
G1 X95.029 Y82.982 A5.57560
G1 X104.079 Y82.982 A5.85563
G1 X104.079 Y115.806 A6.87126
G1 X103.837 Y115.806 A6.87875
G1 X103.837 Y116.010 A6.88506
G1 X104.462 Y116.710 F7800.000
G1 X94.404 Y116.710 A7.19627 F1800.000
G1 X94.404 Y82.357 A8.25920
G1 X104.704 Y82.357 A8.57790
G1 X104.704 Y116.431 A9.63220
G1 X104.462 Y116.431 A9.63969
G1 X104.462 Y116.635 A9.64600
G1 X105.087 Y117.335 F7800.000
G1 X93.779 Y117.335 A9.99588 F1800.000
G1 X93.779 Y81.732 A11.09748
G1 X105.329 Y81.732 A11.45486
G1 X105.329 Y117.056 A12.54782
G1 X105.087 Y117.056 A12.55531
G1 X105.087 Y117.260 A12.56162
G1 X104.654 Y117.085 F7800.000
G1 X95.713 Y115.707 F7800.000
G1 X95.408 Y115.402 A12.57506 F1800.000
G1 X95.408 Y114.512 A12.60276
G1 X96.602 Y115.707 A12.65538
G1 X97.492 Y115.707 A12.68309
G1 X95.408 Y113.622 A12.77488
G1 X95.408 Y112.733 A12.80259
G1 X98.381 Y115.707 A12.93357
G1 X99.271 Y115.707 A12.96127
G1 X95.408 Y111.843 A13.13143
G1 X95.408 Y110.954 A13.15913
G1 X100.160 Y115.707 A13.36847
G1 X101.050 Y115.707 A13.39618
G1 X95.408 Y110.064 A13.64469
G1 X95.408 Y109.175 A13.67240
G1 X101.939 Y115.707 A13.96010
G1 X102.829 Y115.707 A13.98780
G1 X95.408 Y108.285 A14.31468
G1 X95.408 Y107.396 A14.34238
G1 X103.459 Y115.447 A14.69701
G1 X103.701 Y114.799 A14.71853
G1 X95.408 Y106.506 A15.08382
G1 X95.408 Y105.617 A15.11152
G1 X103.701 Y113.910 A15.47680
G1 X103.701 Y113.020 A15.50451
G1 X95.408 Y104.727 A15.86979
G1 X95.408 Y103.838 A15.89749
G1 X103.701 Y112.131 A16.26277
G1 X103.701 Y111.241 A16.29048
G1 X95.408 Y102.948 A16.65576
G1 X95.408 Y102.058 A16.68346
G1 X103.701 Y110.352 A17.04874
G1 X103.701 Y109.462 A17.07645
G1 X95.408 Y101.169 A17.44173
G1 X95.408 Y100.279 A17.46943
G1 X103.701 Y108.573 A17.83471
G1 X103.701 Y107.683 A17.86242
G1 X95.408 Y99.390 A18.22770
G1 X95.408 Y98.500 A18.25540
G1 X103.701 Y106.794 A18.62068
G1 X103.701 Y105.904 A18.64839
G1 X95.408 Y97.611 A19.01367
G1 X95.408 Y96.721 A19.04137
G1 X103.701 Y105.015 A19.40665
G1 X103.701 Y104.125 A19.43436
G1 X95.408 Y95.832 A19.79964
G1 X95.408 Y94.942 A19.82734
G1 X103.701 Y103.235 A20.19262
G1 X103.701 Y102.346 A20.22033
G1 X95.408 Y94.053 A20.58561
G1 X95.408 Y93.163 A20.61331
G1 X103.701 Y101.456 A20.97860
G1 X103.701 Y100.567 A21.00630
G1 X95.408 Y92.274 A21.37158
G1 X95.408 Y91.384 A21.39929
G1 X103.701 Y99.677 A21.76457
G1 X103.701 Y98.788 A21.79227
G1 X95.408 Y90.495 A22.15755
G1 X95.408 Y89.605 A22.18526
G1 X103.701 Y97.898 A22.55054
G1 X103.701 Y97.009 A22.57824
G1 X95.408 Y88.715 A22.94352
G1 X95.408 Y87.826 A22.97123
G1 X103.701 Y96.119 A23.33651
G1 X103.701 Y95.230 A23.36421
G1 X95.408 Y86.936 A23.72949
G1 X95.408 Y86.047 A23.75720
G1 X103.701 Y94.340 A24.12248
G1 X103.701 Y93.451 A24.15018
G1 X95.408 Y85.157 A24.51546
G1 X95.408 Y84.268 A24.54317
G1 X103.701 Y92.561 A24.90845
G1 X103.701 Y91.671 A24.93615
G1 X95.419 Y83.389 A25.30094
G1 X96.279 Y83.361 A25.32776
G1 X103.701 Y90.782 A25.65464
G1 X103.701 Y89.892 A25.68235
G1 X97.169 Y83.361 A25.97005
G1 X98.059 Y83.361 A25.99775
G1 X103.701 Y89.003 A26.24627
G1 X103.701 Y88.113 A26.27397
G1 X98.948 Y83.361 A26.48331
G1 X99.838 Y83.361 A26.51102
G1 X103.701 Y87.224 A26.68118
G1 X103.701 Y86.334 A26.70888
G1 X100.727 Y83.361 A26.83986
G1 X101.617 Y83.361 A26.86757
G1 X103.701 Y85.445 A26.95936
G1 X103.701 Y84.555 A26.98707
G1 X102.506 Y83.361 A27.03969
G1 X103.396 Y83.361 A27.06739
G1 X103.701 Y83.666 A27.08083
G1 Z0.650 F7800.000
G1 X103.988 Y115.957 F7800.000
G1 X103.988 Y116.597 A27.09862 F3600.000
G1 X94.879 Y116.597 A27.35165
G1 X94.879 Y82.832 A28.28957
G1 X104.571 Y82.832 A28.55880
G1 X104.571 Y115.957 A29.47893
G1 X104.063 Y115.957 A29.49305
G1 X104.642 Y116.611 F7800.000
G1 X104.642 Y117.252 A29.51085 F3600.000
G1 X94.224 Y117.252 A29.80023
G1 X94.224 Y82.177 A30.77452
G1 X105.226 Y82.177 A31.08011
G1 X105.226 Y116.611 A32.03660
G1 X104.717 Y116.611 A32.05072
G1 X105.187 Y117.156 F7800.000
G1 X105.187 Y117.797 A32.06256 F1800.000
G1 X93.679 Y117.797 A32.27533
G1 X93.679 Y81.632 A32.94394
G1 X105.771 Y81.632 A33.16749
G1 X105.771 Y117.156 A33.82427
G1 X105.262 Y117.156 A33.83367
G1 X104.687 Y117.156 F7800.000
G1 X103.273 Y116.200 F7800.000
G1 X103.590 Y115.882 A33.84641 F1200.000
G1 X102.327 Y116.200 A33.88336
G1 X104.174 Y114.353 A33.95744
G1 X104.174 Y113.408 A33.98425
G1 X101.382 Y116.200 A34.09626
G1 X100.437 Y116.200 A34.12308
G1 X104.174 Y112.463 A34.27301
G1 X104.174 Y111.517 A34.29983
G1 X99.491 Y116.200 A34.48769
G1 X98.546 Y116.200 A34.51450
G1 X104.174 Y110.572 A34.74029
G1 X104.174 Y109.627 A34.76711
G1 X97.601 Y116.200 A35.03082
G1 X96.655 Y116.200 A35.05764
G1 X104.174 Y108.681 A35.35928
G1 X104.174 Y107.736 A35.38610
G1 X95.710 Y116.200 A35.72567
G1 X95.276 Y115.688 A35.74470
G1 X104.174 Y106.791 A36.10166
G1 X104.174 Y105.845 A36.12848
G1 X95.276 Y114.743 A36.48545
G1 X95.276 Y113.797 A36.51227
G1 X104.174 Y104.900 A36.86923
G1 X104.174 Y103.955 A36.89605
G1 X95.276 Y112.852 A37.25302
G1 X95.276 Y111.907 A37.27984
G1 X104.174 Y103.009 A37.63680
G1 X104.174 Y102.064 A37.66362
G1 X95.276 Y110.961 A38.02059
G1 X95.276 Y110.016 A38.04741
G1 X104.174 Y101.119 A38.40437
G1 X104.174 Y100.173 A38.43119
G1 X95.276 Y109.071 A38.78816
G1 X95.276 Y108.125 A38.81498
G1 X104.174 Y99.228 A39.17194
G1 X104.174 Y98.283 A39.19876
G1 X95.276 Y107.180 A39.55573
G1 X95.276 Y106.235 A39.58254
G1 X104.174 Y97.337 A39.93951
G1 X104.174 Y96.392 A39.96633
G1 X95.276 Y105.289 A40.32330
G1 X95.276 Y104.344 A40.35011
G1 X104.174 Y95.447 A40.70708
G1 X104.174 Y94.501 A40.73390
G1 X95.276 Y103.399 A41.09087
G1 X95.276 Y102.453 A41.11768
G1 X104.174 Y93.556 A41.47465
G1 X104.174 Y92.611 A41.50147
G1 X95.276 Y101.508 A41.85843
G1 X95.276 Y100.563 A41.88525
G1 X104.174 Y91.665 A42.24222
G1 X104.174 Y90.720 A42.26904
G1 X95.276 Y99.617 A42.62600
G1 X95.276 Y98.672 A42.65282
G1 X104.174 Y89.775 A43.00979
G1 X104.174 Y88.829 A43.03661
G1 X95.276 Y97.727 A43.39357
G1 X95.276 Y96.781 A43.42039
G1 X104.174 Y87.884 A43.77736
G1 X104.174 Y86.939 A43.80418
G1 X95.276 Y95.836 A44.16114
G1 X95.276 Y94.891 A44.18796
G1 X104.174 Y85.993 A44.54493
G1 X104.174 Y85.048 A44.57175
G1 X95.276 Y93.945 A44.92871
G1 X95.276 Y93.000 A44.95553
G1 X104.174 Y84.103 A45.31250
G1 X104.102 Y83.229 A45.33737
G1 X95.276 Y92.055 A45.69146
G1 X95.276 Y91.109 A45.71827
G1 X103.157 Y83.229 A46.03444
G1 X102.211 Y83.229 A46.06126
G1 X95.276 Y90.164 A46.33949
G1 X95.276 Y89.219 A46.36631
G1 X101.266 Y83.229 A46.60662
G1 X100.321 Y83.229 A46.63344
G1 X95.276 Y88.273 A46.83582
G1 X95.276 Y87.328 A46.86264
G1 X99.375 Y83.229 A47.02709
G1 X98.430 Y83.229 A47.05391
G1 X95.276 Y86.383 A47.18043
G1 X95.276 Y85.437 A47.20725
G1 X97.485 Y83.229 A47.29585
G1 X96.539 Y83.229 A47.32267
G1 X95.276 Y84.492 A47.37334
G1 X95.276 Y83.547 A47.40016
G1 X95.594 Y83.229 A47.41291
G1 Z0.950 F7800.000
G1 X103.988 Y115.957 F7800.000
G1 X103.988 Y116.824 A47.43701 F3600.000
G1 X94.879 Y116.824 A47.69003
G1 X94.879 Y82.832 A48.63426
G1 X104.783 Y82.832 A48.90938
G1 X104.783 Y115.957 A49.82951
G1 X104.063 Y115.957 A49.84952
G1 X104.642 Y116.611 F7800.000
G1 X104.642 Y117.479 A49.87362 F3600.000
G1 X94.224 Y117.479 A50.16300
G1 X94.224 Y82.177 A51.14360
G1 X105.437 Y82.177 A51.45507
G1 X105.437 Y116.611 A52.41157
G1 X104.717 Y116.611 A52.43158
G1 X105.187 Y117.156 F7800.000
G1 X105.187 Y118.024 A52.44762 F1800.000
G1 X93.679 Y118.024 A52.66038
G1 X93.679 Y81.632 A53.33319
G1 X105.982 Y81.632 A53.56066
G1 X105.982 Y117.156 A54.21744
G1 X105.262 Y117.156 A54.23075
G1 X104.687 Y117.156 F7800.000
G1 X95.276 Y115.882 F7800.000
G1 X95.594 Y116.200 A54.24339 F1200.000
G1 X96.531 Y116.200 A54.26974
G1 X95.276 Y114.945 A54.31964
G1 X95.276 Y114.008 A54.34600
G1 X97.468 Y116.200 A54.43317
G1 X98.405 Y116.200 A54.45952
G1 X95.276 Y113.071 A54.58397
G1 X95.276 Y112.134 A54.61032
G1 X99.342 Y116.200 A54.77203
G1 X100.279 Y116.200 A54.79839
G1 X95.276 Y111.196 A54.99737
G1 X95.276 Y110.259 A55.02372
G1 X101.217 Y116.200 A55.25998
G1 X102.154 Y116.200 A55.28633
G1 X95.276 Y109.322 A55.55985
G1 X95.276 Y108.385 A55.58621
G1 X103.091 Y116.200 A55.89700
G1 X103.590 Y115.762 A55.91568
G1 X95.276 Y107.448 A56.24634
G1 X95.276 Y106.511 A56.27269
G1 X104.174 Y115.408 A56.62655
G1 X104.174 Y114.471 A56.65290
G1 X95.276 Y105.574 A57.00676
G1 X95.276 Y104.637 A57.03311
G1 X104.174 Y113.534 A57.38697
G1 X104.174 Y112.597 A57.41333
G1 X95.276 Y103.700 A57.76718
G1 X95.276 Y102.763 A57.79354
G1 X104.174 Y111.660 A58.14740
G1 X104.174 Y110.723 A58.17375
G1 X95.276 Y101.825 A58.52761
G1 X95.276 Y100.888 A58.55396
G1 X104.174 Y109.786 A58.90782
G1 X104.174 Y108.849 A58.93418
G1 X95.276 Y99.951 A59.28803
G1 X95.276 Y99.014 A59.31439
G1 X104.174 Y107.911 A59.66825
G1 X104.174 Y106.974 A59.69460
G1 X95.276 Y98.077 A60.04846
G1 X95.276 Y97.140 A60.07481
G1 X104.174 Y106.037 A60.42867
G1 X104.174 Y105.100 A60.45502
G1 X95.276 Y96.203 A60.80888
G1 X95.276 Y95.266 A60.83524
G1 X104.174 Y104.163 A61.18910
G1 X104.174 Y103.226 A61.21545
G1 X95.276 Y94.329 A61.56931
G1 X95.276 Y93.392 A61.59566
G1 X104.174 Y102.289 A61.94952
G1 X104.174 Y101.352 A61.97587
G1 X95.276 Y92.454 A62.32973
G1 X95.276 Y91.517 A62.35609
G1 X104.174 Y100.415 A62.70994
G1 X104.174 Y99.478 A62.73630
G1 X95.276 Y90.580 A63.09016
G1 X95.276 Y89.643 A63.11651
G1 X104.174 Y98.540 A63.47037
G1 X104.174 Y97.603 A63.49672
G1 X95.276 Y88.706 A63.85058
G1 X95.276 Y87.769 A63.87694
G1 X104.174 Y96.666 A64.23079
G1 X104.174 Y95.729 A64.25715
G1 X95.276 Y86.832 A64.61101
G1 X95.276 Y85.895 A64.63736
G1 X104.174 Y94.792 A64.99122
G1 X104.174 Y93.855 A65.01757
G1 X95.276 Y84.958 A65.37143
G1 X95.276 Y84.021 A65.39778
G1 X104.174 Y92.918 A65.75164
G1 X104.174 Y91.981 A65.77800
G1 X95.422 Y83.229 A66.12606
G1 X96.359 Y83.229 A66.15241
G1 X104.174 Y91.044 A66.46321
G1 X104.174 Y90.107 A66.48956
G1 X97.296 Y83.229 A66.76309
G1 X98.233 Y83.229 A66.78944
G1 X104.174 Y89.169 A67.02569
G1 X104.174 Y88.232 A67.05205
G1 X99.170 Y83.229 A67.25103
G1 X100.107 Y83.229 A67.27739
G1 X104.174 Y87.295 A67.43910
G1 X104.174 Y86.358 A67.46545
G1 X101.045 Y83.229 A67.58990
G1 X101.982 Y83.229 A67.61625
G1 X104.174 Y85.421 A67.70343
G1 X104.174 Y84.484 A67.72978
G1 X102.919 Y83.229 A67.77969
G1 X103.856 Y83.229 A67.80604
G1 X104.174 Y83.547 A67.81867
M106 P244.8
G1 Z1.250 F7800.000
G1 X103.988 Y115.957 F7800.000
G1 X103.988 Y116.986 A67.84728 F3600.000
G1 X94.879 Y116.986 A68.10030
G1 X94.879 Y82.832 A69.04904
G1 X104.932 Y82.832 A69.32829
G1 X104.932 Y115.957 A70.24843
G1 X104.063 Y115.957 A70.27257
G1 X104.642 Y116.611 F7800.000
G1 X104.642 Y117.641 A70.30118 F3600.000
G1 X94.224 Y117.641 A70.59056
G1 X94.224 Y82.177 A71.57566
G1 X105.587 Y82.177 A71.89128
G1 X105.587 Y116.611 A72.84777
G1 X104.717 Y116.611 A72.87192
G1 X105.187 Y117.156 F7800.000
G1 X105.187 Y118.186 A72.89096 F1800.000
G1 X93.679 Y118.186 A73.10372
G1 X93.679 Y81.632 A73.77953
G1 X106.132 Y81.632 A74.00975
G1 X106.132 Y117.156 A74.66653
G1 X105.262 Y117.156 A74.68260
G1 X104.687 Y117.156 F7800.000
G1 X104.376 Y114.974 F7800.000
G1 X104.376 Y114.048 A74.70831 F4800.000
G1 X101.994 Y116.430 A74.80187
G1 X102.920 Y116.430 A74.82758
G1 X103.431 Y115.918 A74.84769
G1 X103.431 Y115.400 A74.86208
G1 X103.949 Y115.400 A74.87646
G1 X104.376 Y114.974 A74.89321
G1 X104.376 Y113.800 F7800.000
G1 X104.376 Y110.346 A74.98918 F4800.000
G1 X103.646 Y111.076 A75.01786
G1 X104.376 Y113.800 A75.09621
G1 X99.604 Y116.430 F7800.000
G1 X98.569 Y116.153 A75.12597 F4800.000
G1 X98.292 Y116.430 A75.13686
G1 X99.604 Y116.430 A75.17332
G1 X104.376 Y104.157 F7800.000
G1 X101.957 Y103.509 A75.24288 F4800.000
G1 X99.018 Y106.448 A75.35834
G1 X99.800 Y109.368 A75.44231
G1 X96.861 Y112.307 A75.55777
G1 X95.435 Y111.925 A75.59877
G1 X95.435 Y116.430 A75.72391
G1 X97.366 Y116.430 A75.77754
G1 X98.106 Y115.690 A75.80662
G1 X97.324 Y112.770 A75.89059
G1 X100.263 Y109.831 A76.00605
G1 X103.183 Y110.613 A76.09003
G1 X104.376 Y109.420 A76.13688
G1 X104.376 Y104.157 A76.28309
G1 X104.376 Y97.381 F7800.000
G1 X104.376 Y91.834 A76.43718 F4800.000
G1 X102.406 Y93.804 A76.51457
G1 X103.188 Y96.724 A76.59854
G1 X100.249 Y99.663 A76.71401
G1 X97.329 Y98.881 A76.79798
G1 X95.435 Y100.774 A76.87237
G1 X95.435 Y105.402 A77.00092
G1 X95.635 Y105.203 A77.00877
G1 X98.555 Y105.985 A77.09274
G1 X101.494 Y103.046 A77.20820
G1 X100.712 Y100.126 A77.29218
G1 X103.651 Y97.187 A77.40764
G1 X104.376 Y97.381 A77.42848
G1 X103.637 Y87.019 F7800.000
G1 X100.717 Y86.237 A77.51246 F4800.000
G1 X97.778 Y89.176 A77.62792
G1 X98.560 Y92.096 A77.71189
G1 X95.621 Y95.035 A77.82735
G1 X95.435 Y94.985 A77.83269
G1 X95.435 Y99.849 A77.96779
G1 X96.866 Y98.418 A78.02400
G1 X96.084 Y95.498 A78.10797
G1 X99.023 Y92.559 A78.22343
G1 X101.943 Y93.341 A78.30740
G1 X104.376 Y90.908 A78.40298
G1 X104.376 Y88.513 A78.46952
G1 X104.100 Y87.482 A78.49916
G1 X104.376 Y87.206 A78.51001
G1 X104.376 Y86.280 A78.53572
G1 X103.637 Y87.019 A78.56475
G1 X100.254 Y85.774 F7800.000
G1 X99.615 Y83.388 A78.63336 F4800.000
G1 X95.435 Y83.388 A78.74946
G1 X95.435 Y88.209 A78.88339
G1 X97.315 Y88.713 A78.93744
G1 X100.254 Y85.774 A79.05290
M106 P242.25
G1 Z1.550 F7800.000
G1 X103.988 Y115.957 F7800.000
G1 X103.988 Y117.091 A79.08442 F3600.000
G1 X94.879 Y117.091 A79.33745
G1 X94.879 Y82.832 A80.28910
G1 X105.033 Y82.832 A80.57118
G1 X105.033 Y115.957 A81.49131
G1 X104.063 Y115.957 A81.51828
G1 X104.642 Y116.611 F7800.000
G1 X104.642 Y117.746 A81.54980 F3600.000
G1 X94.224 Y117.746 A81.83918
G1 X94.224 Y82.177 A82.82720
G1 X105.688 Y82.177 A83.14563
G1 X105.688 Y116.611 A84.10213
G1 X104.717 Y116.611 A84.12909
G1 X105.187 Y117.156 F7800.000
G1 X105.187 Y118.291 A84.15007 F1800.000
G1 X93.679 Y118.291 A84.36284
G1 X93.679 Y81.632 A85.04059
G1 X106.233 Y81.632 A85.27269
G1 X106.233 Y117.156 A85.92946
G1 X105.262 Y117.156 A85.94741
G1 X104.687 Y117.156 F7800.000
G1 X103.431 Y116.535 F7800.000
G1 X103.431 Y115.455 A85.97740 F4800.000
G1 X102.352 Y116.535 A86.01981
G1 X103.431 Y116.535 A86.04980
G1 X95.635 Y105.203 F7800.000
G1 X95.435 Y104.457 A86.07124 F4800.000
G1 X95.435 Y111.925 A86.27867
G1 X96.861 Y112.307 A86.31968
G1 X97.937 Y116.322 A86.43514
G1 X97.724 Y116.535 A86.44350
G1 X99.996 Y116.535 A86.50662
G1 X98.569 Y116.153 A86.54766
G1 X97.493 Y112.138 A86.66312
G1 X99.631 Y110.000 A86.74709
G1 X98.555 Y105.985 A86.86255
G1 X95.635 Y105.203 A86.94652
G1 X95.621 Y95.035 F7800.000
G1 X95.435 Y94.985 A86.95186 F4800.000
G1 X95.435 Y100.312 A87.09981
G1 X96.697 Y99.050 A87.14937
G1 X95.621 Y95.035 A87.26483
G1 X104.477 Y97.408 F7800.000
G1 X104.477 Y91.270 A87.43535 F4800.000
G1 X102.575 Y93.172 A87.51007
G1 X103.651 Y97.187 A87.62554
G1 X104.477 Y97.408 A87.64930
G1 X104.477 Y86.642 F7800.000
G1 X104.477 Y83.388 A87.73967 F4800.000
