; generated by Slic3r 1.2.9 on 2018-03-07 at 23:27:27

; external perimeters extrusion width = 0.50mm
; perimeters extrusion width = 0.72mm
; infill extrusion width = 0.72mm
; solid infill extrusion width = 0.72mm
; top infill extrusion width = 0.72mm

M107
M104 P200 ; set temperature
G28 ; home all axes
G1 Z5 F5000 ; lift nozzle

M109 P200 ; wait for temperature to be reached
G21 ; set units to millimeters
G90 ; use absolute coordinates
G1 Z0.350 F7800.000
G1 A-2.00000 F2400.00000
G1 X90.375 Y93.966 F7800.000
G1 A0.00000 F2400.00000
G1 X92.322 Y92.753 A0.07096 F1800.000
G1 X94.785 Y92.274 A0.14862
G1 X104.144 Y92.259 A0.43818
G1 X107.281 Y93.054 A0.53831 F1800.000
G1 X109.611 Y95.128 A0.63482
G1 X109.999 Y95.689 A0.65595
G1 X110.920 Y97.631 A0.72244
G1 X111.158 Y98.690 A0.75605
G1 X111.220 Y99.131 A0.76983
G1 X110.841 Y102.445 A0.87301
G1 X110.596 Y103.080 A0.89407
G1 X109.449 Y105.002 A0.96334
G1 X109.194 Y105.300 A0.97547
G1 X107.004 Y106.975 A1.06079
G1 X104.161 Y107.620 A1.15098
G1 X94.805 Y107.633 A1.44046
G1 X92.546 Y107.239 A1.51142
G1 X90.556 Y106.098 A1.58238
G1 X88.958 Y104.137 A1.66065
G1 X88.731 Y103.687 A1.67627
G1 X88.138 Y101.592 A1.74363
G1 X88.046 Y100.691 A1.77164
G1 X88.029 Y100.206 A1.78666
G1 X88.041 Y99.310 A1.81440
G1 X88.138 Y98.314 A1.84535
G1 X88.731 Y96.220 A1.91271
G1 X88.958 Y95.769 A1.92832
G1 X90.328 Y94.025 A1.99697
G1 A-0.00303 F2400.00000
G1 X94.715 Y99.110 F7800.000
G1 A1.99697 F2400.00000
G1 X104.045 Y99.098 A2.28564 F1800.000
G1 X104.155 Y99.155 A2.28948
G1 X104.296 Y99.346 A2.29681
G1 X104.361 Y99.553 A2.30353
G1 X104.402 Y100.029 A2.31832
G1 X104.325 Y100.443 A2.33134
G1 X104.369 Y100.522 A2.33415
G1 X104.396 Y100.643 A2.33797
G1 X104.350 Y100.682 A2.33984
G1 X104.074 Y100.802 A2.34916
G1 X94.717 Y100.810 A2.63868
G1 Z0.650 F7800.000
G1 A0.63868 F2400.00000
G1 X104.400 Y101.079 F7800.000
G1 A2.63868 F2400.00000
G1 X104.400 Y98.762 A2.68151 F900.000
G1 X104.400 Y98.692 A2.68345 F900.000
G1 X104.840 Y99.047 A2.69915
G1 X105.175 Y99.442 A2.71354
G1 X105.228 Y99.517 A2.71610
G1 X105.351 Y99.957 A2.72879
G1 X105.206 Y100.424 A2.74238
G1 X104.679 Y101.008 A2.76423
G1 X104.400 Y101.203 A2.77368
G1 X104.400 Y101.154 A2.77505
G1 Z0.950 F7800.000
G1 X104.400 Y101.674 F7800.000
G1 X104.400 Y98.234 A2.83864 F900.000
G1 X104.967 Y98.556 A2.85069
G1 X105.261 Y98.770 A2.85742
G1 X105.593 Y99.012 A2.86883 F900.000
G1 X105.559 Y99.121 A2.87201
G1 X105.484 Y99.361 A2.87665 F900.000
G1 X105.420 Y99.953 A2.88766
G1 X105.484 Y100.546 A2.89868
G1 X105.558 Y100.782 A2.90327
G1 X105.593 Y100.896 A2.90656 F900.000
G1 X105.249 Y101.137 A2.91824
G1 X104.730 Y101.500 A2.92995 F900.000
G1 X104.466 Y101.639 A2.93547
G1 X104.577 Y101.207 F7800.000
G1 X104.965 Y101.003 F7800.000
G1 X104.910 Y99.928 A2.99823 F1200.000
G1 X104.965 Y98.892 A3.05870
M106 P255
G1 Z1.250 F7800.000
G1 A1.05870 F2400.00000
G1 X104.400 Y102.009 F7800.000
G1 A3.05870 F2400.00000
G1 X104.400 Y97.900 A3.13467 F900.000
G1 X104.821 Y98.094 A3.14325
G1 X105.544 Y98.487 A3.15846
G1 X105.368 Y98.832 A3.16563
G1 X105.275 Y99.115 A3.17112
G1 X104.961 Y99.115 A3.17692
G1 X105.056 Y99.730 A3.18843
G1 X105.099 Y99.810 A3.19011
G1 X105.104 Y99.953 A3.19276
G1 X105.099 Y100.097 A3.19542
G1 X105.056 Y100.177 A3.19710
G1 X104.961 Y100.792 A3.20860
G1 X105.275 Y100.792 A3.21441
G1 X105.368 Y101.074 A3.21990
G1 X105.544 Y101.419 A3.22706
G1 X104.467 Y101.975 A3.24947
G1 X104.578 Y101.542 F7800.000
G1 Z1.550 F7800.000
G1 X104.634 Y101.447 F7800.000
G1 X105.305 Y101.447 A3.26188 F900.000
G1 X105.513 Y101.774 A3.26904
G1 X104.400 Y102.259 A3.29149
G1 X104.400 Y100.831 A3.31789
G1 X105.228 Y100.831 A3.33320
G1 X104.686 Y101.393 A3.34763
G1 X104.507 Y101.931 F7800.000
G1 A1.34763 F2400.00000
G1 X104.634 Y98.459 F7800.000
G1 A3.34763 F2400.00000
G1 X105.228 Y99.075 A3.36345 F900.000
G1 X104.400 Y99.075 A3.37876
G1 X104.400 Y97.638 A3.40533
G1 X105.514 Y98.132 A3.42785
G1 X105.305 Y98.459 A3.43502
G1 X104.709 Y98.459 A3.44605
G1 X104.198 Y98.704 F7800.000
G1 Z1.850 F7800.000
G1 A1.44605 F2400.00000
G1 X104.657 Y101.851 F7800.000
G1 A3.44605 F2400.00000
G1 X105.279 Y101.814 A3.45757 F900.000
G1 X105.343 Y102.081 A3.46263
G1 X104.400 Y102.470 A3.48149
G1 X104.400 Y101.404 A3.50121
G1 X105.090 Y101.404 A3.51396
G1 X104.709 Y101.797 A3.52408
G1 X104.549 Y102.340 F7800.000
G1 A1.52408 F2400.00000
G1 X104.657 Y98.055 F7800.000
G1 A3.52408 F2400.00000
G1 X105.090 Y98.502 A3.53559 F900.000
G1 X104.400 Y98.502 A3.54834
G1 X104.400 Y97.447 A3.56785
G1 X105.313 Y97.820 A3.58608
G1 X105.251 Y98.090 A3.59121
G1 X104.732 Y98.059 A3.60083
G1 X104.216 Y98.291 F7800.000
G1 Z2.150 F7800.000
G1 A1.60083 F2400.00000
G1 X104.400 Y101.721 F7800.000
G1 A3.60083 F2400.00000
G1 X104.962 Y101.721 A3.61123 F900.000
G1 X105.191 Y102.310 A3.62291
G1 X104.400 Y102.614 A3.63857
G1 X104.400 Y101.796 A3.65368
G1 X104.833 Y101.971 F7800.000
G1 A1.65368 F2400.00000
G1 X104.400 Y98.185 F7800.000
G1 A3.65368 F2400.00000
G1 X104.400 Y97.287 A3.67029 F900.000
G1 X105.192 Y97.595 A3.68599
G1 X104.962 Y98.185 A3.69770
G1 X104.475 Y98.185 A3.70671
G1 X104.650 Y97.752 F7800.000
G1 Z2.450 F7800.000
G1 A1.70671 F2400.00000
G1 X104.400 Y101.934 F7800.000
G1 A3.70671 F2400.00000
G1 X105.076 Y101.934 A3.71921 F900.000
G1 X105.245 Y102.430 A3.72889
G1 X104.400 Y102.738 A3.74552
G1 X104.400 Y102.009 A3.75900
G1 X104.833 Y102.184 F7800.000
G1 A1.75900 F2400.00000
G1 X104.400 Y97.972 F7800.000
G1 A3.75900 F2400.00000
G1 X104.400 Y97.170 A3.77382 F900.000
G1 X105.245 Y97.477 A3.79043
G1 X105.076 Y97.972 A3.80010
G1 X104.475 Y97.972 A3.81121
G1 X104.650 Y97.539 F7800.000
G1 Z2.750 F7800.000
G1 A1.81121 F2400.00000
G1 X104.400 Y102.087 F7800.000
G1 A3.81121 F2400.00000
G1 X105.129 Y102.087 A3.82470 F900.000
G1 X105.341 Y102.478 A3.83292
G1 X104.400 Y102.814 A3.85139
G1 X104.400 Y102.162 A3.86344
G1 X104.833 Y102.337 F7800.000
G1 A1.86344 F2400.00000
G1 X104.400 Y97.819 F7800.000
G1 A3.86344 F2400.00000
G1 X104.400 Y97.087 A3.87698 F900.000
G1 X105.341 Y97.427 A3.89548
G1 X105.129 Y97.819 A3.90372
G1 X104.475 Y97.819 A3.91582
G1 X104.650 Y97.386 F7800.000
G1 Z3.050 F7800.000
G1 A1.91582 F2400.00000
G1 X104.400 Y102.161 F7800.000
G1 A3.91582 F2400.00000
G1 X105.110 Y102.161 A3.92895 F900.000
G1 X105.313 Y102.558 A3.93719
G1 X104.400 Y102.875 A3.95505
G1 X104.400 Y102.236 A3.96686
G1 X104.833 Y102.411 F7800.000
G1 A1.96686 F2400.00000
G1 X104.400 Y97.745 F7800.000
G1 A3.96686 F2400.00000
G1 X104.400 Y97.035 A3.98000 F900.000
G1 X105.312 Y97.349 A3.99783
G1 X105.110 Y97.745 A4.00606
G1 X104.475 Y97.745 A4.01781
G1 X104.650 Y97.312 F7800.000
G1 Z3.350 F7800.000
G1 A2.01781 F2400.00000
G1 X104.400 Y102.199 F7800.000
G1 A4.01781 F2400.00000
G1 X105.119 Y102.199 A4.03110 F900.000
G1 X105.363 Y102.556 A4.03909
G1 X104.400 Y102.890 A4.05793
G1 X104.400 Y102.274 A4.06932
G1 X104.833 Y102.449 F7800.000
G1 A2.06932 F2400.00000
G1 X104.400 Y97.707 F7800.000
G1 A4.06932 F2400.00000
G1 X104.400 Y97.010 A4.08221 F900.000
G1 X105.363 Y97.349 A4.10109
G1 X105.119 Y97.707 A4.10910
G1 X104.475 Y97.707 A4.12101
G1 X104.650 Y97.274 F7800.000
G1 Z3.650 F7800.000
G1 A2.12101 F2400.00000
G1 X104.400 Y102.199 F7800.000
G1 A4.12101 F2400.00000
G1 X105.134 Y102.199 A4.13459 F900.000
G1 X105.323 Y102.572 A4.14232
G1 X104.400 Y102.893 A4.16039
G1 X104.400 Y102.274 A4.17183
G1 X104.833 Y102.449 F7800.000
G1 A2.17183 F2400.00000
G1 X104.400 Y97.707 F7800.000
G1 A4.17183 F2400.00000
G1 X104.400 Y97.010 A4.18473 F900.000
G1 X105.323 Y97.333 A4.20282
G1 X105.134 Y97.707 A4.21056
G1 X104.475 Y97.707 A4.22276
G1 X104.650 Y97.274 F7800.000
G1 Z3.950 F7800.000
G1 A2.22276 F2400.00000
G1 X104.400 Y102.135 F7800.000
G1 A4.22276 F2400.00000
G1 X105.108 Y102.135 A4.23585 F900.000
G1 X105.219 Y102.567 A4.24410
G1 X104.400 Y102.861 A4.26018
G1 X104.400 Y102.210 A4.27221
G1 X104.833 Y102.385 F7800.000
G1 A2.27221 F2400.00000
G1 X104.400 Y97.771 F7800.000
G1 A4.27221 F2400.00000
G1 X104.400 Y97.048 A4.28559 F900.000
G1 X105.218 Y97.340 A4.30165
G1 X105.108 Y97.771 A4.30988
G1 X104.475 Y97.771 A4.32159
G1 X104.650 Y97.338 F7800.000
G1 Z4.250 F7800.000
G1 A2.32159 F2400.00000
G1 X104.400 Y102.036 F7800.000
G1 A4.32159 F2400.00000
G1 X105.122 Y102.036 A4.33494 F900.000
G1 X105.342 Y102.454 A4.34368
G1 X104.400 Y102.796 A4.36221
G1 X104.400 Y102.111 A4.37488
G1 X104.833 Y102.286 F7800.000
G1 A2.37488 F2400.00000
G1 X104.400 Y97.870 F7800.000
G1 A4.37488 F2400.00000
G1 X104.400 Y97.108 A4.38897 F900.000
G1 X105.342 Y97.452 A4.40751
G1 X105.122 Y97.870 A4.41626
G1 X104.475 Y97.870 A4.42822
G1 X104.650 Y97.437 F7800.000
G1 Z4.550 F7800.000
G1 A2.42822 F2400.00000
G1 X104.400 Y101.878 F7800.000
G1 A4.42822 F2400.00000
G1 X105.097 Y101.878 A4.44111 F900.000
G1 X105.214 Y102.395 A4.45091
G1 X104.400 Y102.703 A4.46700
G1 X104.400 Y101.953 A4.48086
G1 X104.833 Y102.128 F7800.000
G1 A2.48086 F2400.00000
G1 X104.400 Y98.028 F7800.000
G1 A4.48086 F2400.00000
G1 X104.400 Y97.206 A4.49606 F900.000
G1 X105.214 Y97.512 A4.51213
G1 X105.097 Y98.028 A4.52192
G1 X104.475 Y98.028 A4.53343
G1 X104.650 Y97.595 F7800.000
G1 Z4.850 F7800.000
G1 A2.53343 F2400.00000
G1 X104.592 Y102.030 F7800.000
G1 A4.53343 F2400.00000
G1 X105.072 Y102.009 A4.54231 F900.000
G1 X105.130 Y102.279 A4.54742
G1 X104.400 Y102.569 A4.56195
G1 X104.400 Y101.627 A4.57938
G1 X105.031 Y101.627 A4.59105
G1 X104.647 Y101.980 A4.60069
G1 X104.475 Y102.496 F7800.000
G1 A2.60069 F2400.00000
G1 X104.592 Y97.876 F7800.000
G1 A4.60069 F2400.00000
G1 X105.031 Y98.280 A4.61171 F900.000
G1 X104.400 Y98.280 A4.62338
G1 X104.400 Y97.329 A4.64096
G1 X105.147 Y97.629 A4.65585
G1 X105.088 Y97.898 A4.66094
G1 X104.667 Y97.879 A4.66873
G1 X104.162 Y98.131 F7800.000
G1 Z5.150 F7800.000
G1 A2.66873 F2400.00000
G1 X104.731 Y101.744 F7800.000
G1 A4.66873 F2400.00000
G1 X105.373 Y101.702 A4.68062 F900.000
G1 X105.436 Y101.972 A4.68573
G1 X104.400 Y102.407 A4.70651
G1 X104.400 Y101.249 A4.72792
G1 X105.143 Y101.249 A4.74166
G1 X104.779 Y101.686 A4.75216
G1 X104.638 Y102.235 F7800.000
G1 A2.75216 F2400.00000
G1 X104.731 Y98.163 F7800.000
G1 A4.75216 F2400.00000
G1 X105.143 Y98.657 A4.76406 F900.000
G1 X104.400 Y98.657 A4.77779
G1 X104.400 Y97.505 A4.79910
G1 X105.432 Y97.934 A4.81977
G1 X105.369 Y98.204 A4.82490
G1 X104.806 Y98.168 A4.83533
G1 X104.279 Y98.376 F7800.000
G1 Z5.450 F7800.000
G1 A2.83533 F2400.00000
G1 X104.815 Y101.304 F7800.000
G1 A4.83533 F2400.00000
G1 X105.303 Y101.274 A4.84438 F900.000
G1 X105.506 Y101.662 A4.85248
G1 X104.773 Y102.020 A4.86756
G1 X104.400 Y102.179 A4.87505
G1 X104.400 Y100.749 A4.90148
M106 P255
G1 X104.400 Y100.264 A4.91496 F900.000
G1 X105.100 Y100.264 A4.93441
M106 P255
G1 X105.198 Y100.264 A4.93621 F900.000
G1 X105.197 Y100.665 A4.94363
G1 X105.117 Y100.723 A4.94545
G1 X104.850 Y101.238 A4.95618
G1 X104.758 Y101.790 F7800.000
G1 A2.95618 F2400.00000
G1 X104.815 Y98.602 F7800.000
G1 A4.95618 F2400.00000
G1 X105.117 Y99.184 A4.96830 F900.000
G1 X105.191 Y99.237 A4.96999
G1 X105.199 Y99.643 A4.97748
G1 X105.100 Y99.643 A4.97932
M106 P255
G1 X104.400 Y99.643 A4.99876 F900.000
G1 X104.400 Y99.157 A5.01224
M106 P255
G1 X104.400 Y97.728 A5.03867 F900.000
G1 X105.505 Y98.245 A5.06123
G1 X105.303 Y98.633 A5.06931
G1 X104.890 Y98.607 A5.07697
G1 X104.337 Y98.749 F7800.000
G1 A3.07697 F2400.00000
G1 X103.482 Y102.565 F7800.000
G1 A5.07697 F2400.00000
G1 X100.094 Y102.565 A5.17109 F1800.000
G1 A3.17109 F2400.00000
G1 X97.377 Y102.565 F7800.000
G1 A5.17109 F2400.00000
G1 X96.272 Y102.565 A5.20179 F1800.000
G1 Z5.750 F7800.000
G1 A3.20179 F2400.00000
G1 X104.400 Y98.006 F7800.000
G1 A5.20179 F2400.00000
G1 X104.780 Y98.186 A5.20957 F900.000
G1 X105.555 Y98.650 A5.22627
G1 X105.476 Y98.805 A5.22950
G1 X105.290 Y99.384 A5.24073
G1 X105.227 Y99.953 A5.25132
G1 X105.290 Y100.523 A5.26192
G1 X105.476 Y101.101 A5.27315
G1 X105.555 Y101.257 A5.27638
G1 X105.038 Y101.577 A5.28763
G1 X104.400 Y101.903 A5.30087
G1 X104.400 Y98.081 A5.37153
G1 X104.687 Y98.313 F7800.000
G1 X104.955 Y98.609 F7800.000
G1 X104.848 Y99.307 A5.39116 F1200.000
G1 X104.813 Y99.969 A5.40956
G1 X104.852 Y100.635 A5.42809
G1 X104.957 Y101.306 A5.44698
G1 Z6.050 F7800.000
G1 A3.44698 F2400.00000
G1 X104.400 Y98.386 F7800.000
G1 A5.44698 F2400.00000
G1 X104.902 Y98.685 A5.45778 F900.000
G1 X105.606 Y99.290 A5.47494
G1 X105.527 Y99.953 A5.48729
G1 X105.606 Y100.614 A5.49959
G1 X105.054 Y101.108 A5.51329
G1 X104.400 Y101.546 A5.52784
G1 X104.400 Y98.461 A5.58487
G1 X104.718 Y98.772 F7800.000
G1 X105.010 Y99.137 F7800.000
G1 X104.963 Y99.988 A5.63452 F1200.000
G1 X105.011 Y100.781 A5.68081
G1 Z6.350 F7800.000
G1 X104.400 Y99.185 F7800.000
G1 X104.629 Y99.113 A5.68525 F900.000
G1 X104.835 Y99.409 A5.69192
G1 X105.003 Y99.701 A5.69815
G1 X105.019 Y99.810 A5.70019
G1 X105.019 Y100.149 A5.70645
G1 X104.961 Y100.286 A5.70920
G1 X104.779 Y100.605 A5.71599
G1 X104.400 Y100.979 A5.72584
G1 X104.400 Y99.260 A5.75763
G1 X104.628 Y99.260 F7800.000
G1 Z6.650 F7800.000
G1 X103.900 Y99.473 F7800.000
G1 X104.026 Y99.473 A5.75996 F900.000
G1 X104.098 Y99.590 A5.76250
G1 X104.159 Y100.094 A5.77189
G1 X103.991 Y100.491 A5.77985
G1 X103.900 Y100.491 A5.78155
M106 P255
G1 X94.971 Y100.454 A6.02956 F900.000
G1 X94.945 Y99.953 A6.04350
G1 X94.971 Y99.452 A6.05744
G1 X97.636 Y99.441 A6.13145
G1 X103.825 Y99.472 A6.30338
M106 P255
G1 X103.871 Y99.982 F7800.000
G1 X95.218 Y99.953 A6.80774 F1200.000
G1 A4.80774 F2400.00000
M107
M104 S0 ; turn off temperature
G28 X0  ; home X axis
M84     ; disable motors

; filament used = 6.8mm (0.0cm3)

; avoid_crossing_perimeters = 0
; bed_shape = 0x0,200x0,200x200,0x200
; bed_temperature = 0
; before_layer_gcode = 
; bridge_acceleration = 0
; bridge_fan_speed = 100
; brim_width = 0
; complete_objects = 0
; cooling = 1
; default_acceleration = 0
; disable_fan_first_layers = 3
; duplicate_distance = 6
; end_gcode = M104 S0 ; turn off temperature\nG28 X0  ; home X axis\nM84     ; disable motors\n
; extruder_clearance_height = 20
; extruder_clearance_radius = 20
; extruder_offset = 0x0
; extrusion_axis = E
; extrusion_multiplier = 1
; fan_always_on = 0
; fan_below_layer_time = 60
; filament_colour = #FFFFFF
; filament_diameter = 3
; first_layer_acceleration = 0
; first_layer_bed_temperature = 0
; first_layer_extrusion_width = 200%
; first_layer_speed = 30
; first_layer_temperature = 200
; gcode_arcs = 0
; gcode_comments = 0
; gcode_flavor = mach3
; infill_acceleration = 0
; infill_first = 0
; layer_gcode = 
; max_fan_speed = 100
; max_print_speed = 80
; max_volumetric_speed = 0
; min_fan_speed = 35
; min_print_speed = 10
; min_skirt_length = 0
; notes = 
; nozzle_diameter = 0.5
; only_retract_when_crossing_perimeters = 1
; ooze_prevention = 0
; output_filename_format = [input_filename_base].gcode
; perimeter_acceleration = 0
; post_process = 
; pressure_advance = 0
; resolution = 0
; retract_before_travel = 2
; retract_layer_change = 0
; retract_length = 2
; retract_length_toolchange = 10
; retract_lift = 0
; retract_restart_extra = 0
; retract_restart_extra_toolchange = 0
; retract_speed = 40
; skirt_distance = 6
; skirt_height = 1
; skirts = 1
; slowdown_below_layer_time = 5
; spiral_vase = 0
; standby_temperature_delta = -5
; start_gcode = G28 ; home all axes\nG1 Z5 F5000 ; lift nozzle\n
; temperature = 200
; threads = 2
; toolchange_gcode = 
; travel_speed = 130
; use_firmware_retraction = 0
; use_relative_e_distances = 0
; use_volumetric_e = 0
; vibration_limit = 0
; wipe = 0
; z_offset = 0
; dont_support_bridges = 1
; extrusion_width = 0
; first_layer_height = 0.35
; infill_only_where_needed = 0
; interface_shells = 0
; layer_height = 0.3
; raft_layers = 0
; seam_position = aligned
; support_material = 0
; support_material_angle = 0
; support_material_contact_distance = 0.2
; support_material_enforce_layers = 0
; support_material_extruder = 1
; support_material_extrusion_width = 0
; support_material_interface_extruder = 1
; support_material_interface_layers = 3
; support_material_interface_spacing = 0
; support_material_interface_speed = 100%
; support_material_pattern = pillars
; support_material_spacing = 2.5
